X: 1062
T: Am Monadh Ruadh
R: reel
M: 4/4
K: Eminor
"e" E2GB e2ed|"D" de A2 AGAB|"G" G3d g3f|"D" fgag efBd|
"e" e2 dB e2 dB|"D" GAAB ED D2|1 "G" G6 AG|"D" F3 A FAF/E/D:|2 "G" G3 A "D" F2 ED|"e" E4 z ABd||
"e" e4edgf|"D" .d2 d3 ABd|"G" gfdB e2 dB|"D" d<ez E2 ABd|
"e" e2 dB e2 dB|"D" GAAB ED D2|1 "G" G6 AG|F3"D" A FABd:|2 "G" G3 A "D" F2 ED|"e" E8||

